X: 29
T: REEL
R: reel
Z: 2006 John Chambers <jc:trillian.mit.edu>
B: "Rinnci na h-\'Eireann" Elizabeth Burchenal, ed. G.Schirmer (1925) p.46
M: C
L: 1/8
Q: 1/4=112
K: G
D2 \
| "G"G3A (BABd) | (gdeB) (cBAG) | "C"(EA)(AB)    A2(GE) | "C"(EA)(AB)    A2GE |
  "G"G3A  BABd  |  gdeB   cBAG  | "C"(EG)(GA) "G"G2(ED) | "C"(EG)(GA) "G"G2    :|
|: (ga) \
| "G"b2(bg) "D7"a2(af) | "G"gfgd edBG |"Am"(ea)(ab)    a2(gd) |"Am"(ea)(ab)    a2ga |
  "G"b2(bg) "D7"a2(af) | "G"gfgd edBG | "C"(EG)(GA) "G"G2(ED) | "C"(EG)(GA) "G"G2  :|

%%sep 2 1 500

